src/public/img/icons/copy-btn-black.svg

<svg width="20" height="20" viewBox="0 0 20 20" fill="none" xmlns="http://www.w3.org/2000/svg">
<path d="M4.5 13.25C3.5335 13.25 2.75 12.4665 2.75 11.5V4.75C2.75 3.64543 3.64543 2.75 4.75 2.75H11.5C12.4665 2.75 13.25 3.5335 13.25 4.5" stroke="#111A2C" stroke-width="1.5" stroke-linecap="round" stroke-linejoin="round"/>
<path d="M15.25 6.75H8.75C7.64543 6.75 6.75 7.64543 6.75 8.75V15.25C6.75 16.3546 7.64543 17.25 8.75 17.25H15.25C16.3546 17.25 17.25 16.3546 17.25 15.25V8.75C17.25 7.64543 16.3546 6.75 15.25 6.75Z" stroke="#111A2C" stroke-width="1.5" stroke-linecap="round" stroke-linejoin="round"/>
</svg>

<svg xmlns="http://www.w3.org/2000/svg" width="20" height="20" fill="none">
  <path stroke="#111A2C" stroke-linecap="round" stroke-linejoin="round" stroke-width="1.5" d="M4.5 13.25a1.75 1.75 0 0 1-1.75-1.75V4.75a2 2 0 0 1 2-2h6.75c.966 0 1.75.784 1.75 1.75"/>
  <path stroke="#111A2C" stroke-linecap="round" stroke-linejoin="round" stroke-width="1.5" d="M15.25 6.75h-6.5a2 2 0 0 0-2 2v6.5a2 2 0 0 0 2 2h6.5a2 2 0 0 0 2-2v-6.5a2 2 0 0 0-2-2Z"/>
</svg>
